X:313
T:Reel 313
M:4/4
K:Dmaj
L:1/8
G2FA B2AF|DGFG EDB,C|DB,A,B, D2FA| (3Bcd AG FDD2:|c2ed cAA2|BdAc Bcd2|BdBc dcdB|AFEG FDD2|cded cAAB|ceec dBAG|F2FD B,DA,B,|DFED CDB,C|
